src/pos-icons/format-vertical-align-center.svg

<svg height="24" viewBox="0 0 24 24" width="24" xmlns="http://www.w3.org/2000/svg"><path d="m8 19h3v4h2v-4h3l-4-4zm8-14h-3v-4h-2v4h-3l4 4zm-12 6v2h16v-2z"/></svg>

<?xml version="1.0" encoding="UTF-8"?><!DOCTYPE svg PUBLIC "-//W3C//DTD SVG 1.1//EN" "http://www.w3.org/Graphics/SVG/1.1/DTD/svg11.dtd"><svg xmlns="http://www.w3.org/2000/svg" xmlns:xlink="http://www.w3.org/1999/xlink" version="1.1" id="mdi-format-vertical-align-center" width="24" height="24" viewBox="0 0 24 24"><path d="M8,19H11V23H13V19H16L12,15L8,19M16,5H13V1H11V5H8L12,9L16,5M4,11V13H20V11H4Z" /></svg>
